X:105
T: O'Reilly's
S: "First Collection of Traditional Irish Music" (M.Mulvihill)
Z: B.Black
L: 1/8
M: 4/4
R: reel
K: D
(3A,BC|D2 (3FED ADFA|BAFA (3Bcd AF|D3 F ABAF|G2 FG ECB,C|
D2 (3FED ADFA|BAFA (3Bcd AF|D3 F ABAF|(3GGG FG E2 :|
(3ABc|d3 f (3efe dB|AF (3FEF DFAB|dcdf (3efe dB|Adfd edBA|
dcdf (3efe dB|AF (3FEF DFAc|BAGF GABc|dcdB AFEF :|
